X:487
T:O Dear,What Can The Matter Be. RH.487
R:jig
S:Rev.R.Harrison’s MS,c1815,Cumbria
O:England
A:Temple Sowerby,Cumbria
Z:vmp.Simon Wilson. Review PJH, 2008.
M:6/8
L:1/8
Q:3/8=120
K:Bb
c3c3|cAf cAF|B3B3|BGA BAG|\
c3c3|cAf cAF|DFB A>BG|F3:|!
|:F|cAB cAB|cAf cAF|BGA BGA|BGA BAG|\
cAB cAB|cAf cAF|DFB A>BG|F3|]

